!!!COM: Haydn, Franz Joseph
!!!OTL: String Quartet in C Major
!!!OPS: Opus 20
!!!ONM: No. 2
!!!OMD: Moderato
!!!OMV: 1
!!!SCT: H III:32
!!!SCA: Thematisch-bibliographisches Werkevererzeichnis (A. van Hoboken)
!!!YOR: Trautwein Edition
!!!ENC: Frances Bennion
!!!CDT: 1732/3/31/-1809/5/31/
!!!CNT: Oesterreich
!!!YEC: Copyright (c) 1994, 2000 Center for Computer Assisted Research in the Humanities
!!!YEM: Rights to all derivative editions reserved.
!!!YEM: Refer to licensing agreement for further details.
!!!YEN: United States of America
**tshrm	**tsroot	**kern	**kern	**kern	**kern
*k[]	*k[]	*k[]	*k[]	*k[]	*k[]
*	*	*C:	*C:	*C:	*C:
*	*	*clefF4	*clefC3	*clefG	*clefG
*M4/4	*M4/4	*M4/4	*M4/4	*M4/4	*M4/4
.	C	2..r	2..r	2..r	2..r
V	G	8G	8r	8r	8r
=1	=1	=1	=1	=1	=1
V7	G	2c	8r	4r	1r
I	C	.	8C	.	.
.	C	.	8E	2c	.
.	C	.	8A	.	.
.	C	4.d	8F	.	.
.	C	.	8D	.	.
.	C	.	8G	4B	.
.	C	16e	8G	.	.
.	C	16f	.	.	.
=2	=2	=2	=2	=2	=2
.	C	8e	8C	8c	1r
.	C	8g	8C	8e	.
.	C	8g	8E	8e	.
.	C	8g	8G	8e	.
.	C	8.g	8c	8.e	.
Chr	B-	.	8C	.	.
.	B-	16e	.	16c	.
I	C	16g	4r	16e	.
.	C	16e	.	16c	.
.	C	16g	.	16e	.
.	C	16e	.	16c	.
=3	=3	=3	=3	=3	=3
V	G	8.g	8c	8.e	1r
I	C	.	8C	.	.
.	C	16e	.	16c	.
.	C	16g	8r	16e	.
.	r	16e	.	16c	.
.	C	16g	8C	16e	.
.	C	16e	.	16c	.
.	C	8f	4F	8d	.
IVc	F	4e	.	4c	.
.	F	.	4G	.	.
.	F	8d	.	8B	.
=4	=4	=4	=4	=4	=4
.	F	4c	8C	4c	1r
I	C	.	8C	.	.
.	C	4e	8C	4G	.
V7/IV	C	.	8C	.	.
.	C	4f	8C	4A	.
IVc	F	.	8C	.	.
.	F	8A	8C	8f	.
.	F	8B	8C	8d	.
=5	=5	=5	=5	=5	=5
.	F	4c	8C	4e	1r
I	C	.	8C	.	.
.	C	4e	8C	4B-	.
Vb	G	.	8C	.	.
.	G	4f	8C	4A	.
I	C	.	8C	.	.
iiic	E	24A	8C	8f	.
.	r	24B	.	.	.
.	E	24c	.	.	.
*G:	*G:	*	*	*	*
Vc	D	24B	8C	8d	.
.	r	24c	.	.	.
.	r	24d	.	.	.
=6	=6	=6	=6	=6	=6
.	D	4c	8C	4c	2..r
I	G	.	8c	.	.
.	G	8.d	8B	2.r	.
.	G	.	8G	.	.
.	G	32c	.	.	.
.	G	32d	.	.	.
IVb	C	4e	8c	.	.
iib	A	.	8B	.	.
.	A	8.f#	8A	.	.
V	D	.	8d	.	8dd
.	D	32e	.	.	.
.	D	32f#	.	.	.
=7	=7	=7	=7	=7	=7
V7	D	4g	8G	4r	2gg
I	G	.	8G	.	.
.	G	2.r	8B	2gg	.
.	G	.	8e	.	.
.	G	.	8c	.	4.aa
.	G	.	8A	.	.
.	G	.	8d	4ff#	.
.	G	.	8d	.	16bb
.	G	.	.	.	16ccc
=8	=8	=8	=8	=8	=8
.	G	1r	8G	8gg	8bb
.	G	.	8G	8bb	8ddd
.	G	.	8B	8bb	8ddd
.	G	.	8d	8bb	8ddd
.	G	.	8g	8.bb	8.ddd
Chr	F	.	8G	.	.
.	F	.	.	16gg	16bb
I	G	.	4r	16bb	16ddd
.	G	.	.	16gg	16bb
.	G	.	.	16bb	16ddd
.	G	.	.	16gg	16bb
=9	=9	=9	=9	=9	=9
V	D	1r	8g	8.bb	8.ddd
I	G	.	8G	.	.
.	G	.	.	16gg	16bb
.	G	.	8r	16bb	16ddd
.	G	.	.	16gg	16bb
.	G	.	8G	16bb	16ddd
.	r	.	.	16gg	16bb
.	G	.	4c	8aa	8ccc
IVc	C	.	.	4gg	4bb
.	C	.	4d	.	.
.	C	.	.	8ff#	8aa
=10	=10	=10	=10	=10	=10
.	C	1r	8G	4gg	4gg
I	G	.	8G	.	.
.	G	.	8G	4dd	4bb
V7/IV	G	.	8G	.	.
.	G	.	8G	4ee	4ccc
IVc	C	.	8G	.	.
.	C	.	8G	8cc	8ee
.	C	.	8G	8a	16ff#
.	C	.	.	.	32ee
.	C	.	.	.	32ff#
=11	=11	=11	=11	=11	=11
.	C	1r	8G	8b	4gg
I	G	.	8G	8dd	.
IVc	C	.	8G	8ff	8.bb
V	D	.	8G	8dd	.
.	D	.	.	.	32aa
.	r	.	.	.	32bb
IV	C	.	8G	4ee	4ccc
Ib	G	.	8G	.	.
IV	C	.	8G	4cc	24ee
.	r	.	.	.	24ff#
.	r	.	.	.	24gg
Ib	G	.	8G	.	24ff#
.	r	.	.	.	24gg
.	G	.	.	.	24aa
=12	=12	=12	=12	=12	=12
Chr	F	4GG	8G	8dd	1gg
I	G	.	8ee	8gg	.
IVc	C	2.r	8dd	8ff#	.
Ib	G	.	8cc	8ee	.
IV	C	.	8b	8dd	.
I	G	.	8cc	8ee	.
IVb	C	.	8b	8dd	.
ii7b	A	.	8a	8cc	.
=13	=13	=13	=13	=13	=13
.	A	4GG	8g	8b	1gg
I	G	.	8cc	8ee	.
.	r	2.r	8b	8dd	.
.	G	.	8a	8cc	.
.	G	.	8g	8b	.
.	G	.	8e	8cc	.
.	G	.	8c	8a	.
.	r	.	8A	8f#	.
=14	=14	=14	=14	=14	=14
.	G	4GG	4B	4g	4gg
.	C	8.GG	8.G	8.B	8.g
.	C	16GG	16G	16B	16g
IVb	F	4GG	4G	4B	4g
.	D	4r	4r	8r	4r
V	G	.	.	8g	.
=15	=15	=15	=15	=15	=15
V7	G	1r	4r	2cc	8r
I	C	.	.	.	8c
.	C	.	2cc	.	8e
V7/IV	C	.	.	.	8a
.	C	.	.	4.dd	8f
IVc	F	.	.	.	8d
.	F	.	4b	.	8g
.	F	.	.	16ee	8G
.	F	.	.	16ff	.
=16	=16	=16	=16	=16	=16
iic	D	16r	4cc	2ee	8c
.	D	16CC	.	.	.
I	C	16EE	.	.	8r
.	C	16GG	.	.	.
.	C	16C	4g	.	4bb-
.	C	16E	.	.	.
V7/IV	C	16G	.	.	.
.	C	16c	.	.	.
.	C	16r	4.f	4ff	4aa
.	C	16CC	.	.	.
IVc	F	16FF	.	.	.
.	F	16AA	.	.	.
.	F	16C	.	4a	8.ff
.	F	16F	.	.	.
.	F	16A	8d	.	.
.	F	16B	.	.	32ee
.	F	.	.	.	32ff
=17	=17	=17	=17	=17	=17
iic	D	16c	4e	4g	4ee
.	D	16CC	.	.	.
I	C	16EE	.	.	.
.	C	16GG	.	.	.
.	C	16C	4G	4e	4bb-
.	C	16E	.	.	.
.	C	16G	.	.	.
.	C	16c	.	.	.
.	C	16r	8F	4f	4aa
.	C	16CC	.	.	.
.	C	16FF	4f	.	.
.	C	16AA	.	.	.
.	C	16C	.	4a	8.ff
.	C	16F	.	.	.
.	C	16A	8d	.	.
.	C	16B	.	.	32ee
.	r	.	.	.	32ff
=18	=18	=18	=18	=18	=18
.	C	4c	4e	4g	16ee
.	C	.	.	.	16cc
V	G	.	.	.	16ee
.	r	.	.	.	16gg
V7c	G	2.r	2.r	2.r	16ccc
.	G	.	.	.	16gg
.	G	.	.	.	16eee
.	G	.	.	.	16ccc
I	C	.	.	.	16ggg
.	C	.	.	.	16eee
IV	F	.	.	.	16ccc
.	F	.	.	.	16gg
.	F	.	.	.	16ccc
.	F	.	.	.	16gg
.	F	.	.	.	16ee
.	F	.	.	.	16cc
=19	=19	=19	=19	=19	=19
I	C	4r	4r	8r	8G
v	G	.	.	4dd	4ff
iib	D	8B	4g	.	.
Ib	C	8c	.	8cc	8ee
Chr	B-	4.F	4.f	4.a	4.aa
.	r	8r	8r	8r	32gg
.	r	.	.	.	32ff
.	r	.	.	.	32ee
.	r	.	.	.	32dd
=20	=20	=20	=20	=20	=20
.	r	2r	8g	8b-	8cc#
*G:	*G:	*	*	*	*
I	G	.	8f	8a	8dd
.	G	.	8e	8g	8ee
.	r	.	8d	8f	8ff
.	G	2G	2g	2e	4..cc
.	C	.	.	.	32dd
.	C	.	.	.	32cc
=21	=21	=21	=21	=21	=21
I	G	4GG	4G	4d	4b
ii7d	A	3..r	3..r	8r	8r
V7b	D	.	.	8b	8dd
vi7	E	.	.	8ee	8gg
V7	D	.	.	8dd	8ff#
.	D	.	.	8cc	8ee
.	r	24r	24r	.	.
.	D	8G	8B	8b	8dd
=22	=22	=22	=22	=22	=22
.	D	8A	8c	[6..a	[6..cc
I	G	8G	8B	.	.
.	G	8F#	8A	.	.
.	r	.	.	48a]	48cc]
.	G	.	.	32b	32dd
.	r	.	.	32cc	32ee
vib	E	8E	8G	32dd	32ff#
.	r	.	.	32ee	32gg
.	E	.	.	32ff#	32aa
.	r	.	.	32gg	32bb
.	E	4.D	4.F#	8aa	8ccc
Vb	D	.	.	8ff#	8aa
.	D	.	.	8cc	8ff#
.	D	8f#	8a	8a	8cc
=23	=23	=23	=23	=23	=23
.	D	8g	4g	8b	4b
vi	E	8g	.	8b	.
.	E	8g	4.r	8b	4.ee
IVb	C	8g	.	8b	.
.	C	8f#	.	8a	.
V7	D	8f#	8a	8a	8cc#
.	D	8f#	8dd	8a	8.dd
iiib	B	8f#	8d	8a	.
.	B	.	.	.	32ee
.	B	.	.	.	32ff#
=24	=24	=24	=24	=24	=24
.	B	8e	8r	8g	4gg
iib	A	8e	8b	8g	.
.	A	8e	4cc	8g	16ff#
.	r	.	.	.	16ee
.	A	8e	.	8g	16dd
.	A	.	.	.	16cc
.	A	8d	2r	8f#	16cc
.	A	.	.	.	16b
.	A	8d	.	8f#	16a#
.	A	.	.	.	16b
.	A	8d	.	8f#	8.b
.	A	8d	.	8f#	.
.	A	.	.	.	32cc
.	r	.	.	.	32dd
=25	=25	=25	=25	=25	=25
IV	C	1c	8r	8e	4.ee
V7	D	.	8g#	8b	.
.	r	.	8a	4.cc	.
.	D	.	8a	.	8cc
.	D	.	2a	.	8a
.	D	.	.	8ee	8ccc
.	D	.	.	8cc	8aa
.	D	.	.	8cc	8gg
=26	=26	=26	=26	=26	=26
.	D	4.d	4.a	4.cc	4gg
.	A	.	.	.	24ff#
.	A	.	.	.	24dd
.	A	.	.	.	24ee
.	A	3..r	3..r	8r	24ff#
.	A	.	.	.	24ee
.	A	.	.	.	24dd
V7	D	.	.	24aa	24aa
.	D	.	.	24ff#	24dd
.	D	.	.	24gg	24ee
I	G	.	.	24aa	24ff#
.	r	.	.	24gg	24ee
.	r	.	.	24ff#	24dd
.	G	.	.	24aa	24ccc
.	r	.	.	24ff#	24dd
.	G	.	.	24gg	24ee
vib	E	.	.	24aa	24ff#
.	r	.	.	24gg	24ee
.	r	24r	24r	24ff#	24dd
=27	=27	=27	=27	=27	=27
V7d/V	A	24r	24r	4.ccc	4.eee
.	r	24d	24f#	.	.
.	r	24e	24g	.	.
.	A	24f#	24a	.	.
.	r	24e	24g	.	.
.	r	24d	24f#	.	.
.	r	24f#	24a	.	.
.	r	24e	24g	.	.
.	r	24d	24f#	.	.
Vb	D	24f#	24a	16bb	16ddd
.	r	24e	24g	.	.
.	D	.	.	16aa	16ccc
.	r	24d	24f#	.	.
.	D	[2g	2b	8gg	8bb
.	D	.	.	8dd	8ggg
V7	D	.	.	8ee	8eee
iic	A	.	.	8ee	8ccc#
=28	=28	=28	=28	=28	=28
vi	E	4g]	4b-	4ee	4ccc#
.	C	4f#	4a	4dd	4ddd
V7	D	4DD	8r	8r	8r
I	G	.	4F#	4A	4c
.	r	4EE	.	.	.
.	r	.	8G	8G	8B
=29	=29	=29	=29	=29	=29
.	G	4CC	8r	8r	8r
IV	C	.	8G	8c	8e
.	C	8r	8r	8r	8r
Vb	D	8DD	8c	8A	8f#
V7b	D	4GG	4B	4G	4g
.	G	4r	4r	24r	24r
.	G	.	.	24gg	24bb
.	G	.	.	24aa	24ccc
vi	E	.	.	24bb	24ddd
.	E	.	.	24aa	24ccc
.	E	.	.	24gg	24bb
=30	=30	=30	=30	=30	=30
.	E	24r	24r	4ccc	4eee
.	E	24c	24e	.	.
.	E	24d	24f#	.	.
ii	A	24e	24g	.	.
.	A	24d	24f#	.	.
.	A	24c	24e	.	.
.	A	4f#	4a	24r	24r
.	A	.	.	24ff#	24aa
.	A	.	.	24gg	24bb
V	D	.	.	24aa	24ccc
.	D	.	.	24gg	24bb
.	D	.	.	24ff#	24aa
V7	D	24r	24r	4bb	4ddd
.	D	24B	24d	.	.
.	D	24c	24e	.	.
Ic	G	24d	24f#	.	.
.	G	24c	24e	.	.
.	G	24B	24d	.	.
.	G	4e	4g	24r	24r
.	G	.	.	24ee	24gg
.	G	.	.	24ff#	24aa
V7b	D	.	.	24gg	24bb
.	D	.	.	24ff#	24aa
.	D	.	.	24ee	24gg
=31	=31	=31	=31	=31	=31
I	G	24r	24r	4aa	4ccc
.	G	24A	24c	.	.
.	G	24B	24d	.	.
V	D	24c	24e	.	.
.	D	24B	24d	.	.
.	D	24A	24c	.	.
.	D	4d	4f#	24r	24r
.	D	.	.	24ff#	24aa
.	D	.	.	24gg	24bb
V7b	D	.	.	24aa	24ccc
.	D	.	.	24gg	24bb
.	D	.	.	24ff#	24aa
I	G	2r	8r	8gg	24bb
.	G	.	.	.	24dd
.	G	.	.	.	24dd
V	D	.	8D	8b	24ddd
.	D	.	.	.	24dd
.	D	.	.	.	24dd
.	D	.	24F#	8a	24ccc
.	D	.	24A	.	24dd
.	D	.	24d	.	24dd
V7b	D	.	24G	8g	24bb
.	D	.	24B	.	24dd
.	D	.	24d	.	24dd
=32	=32	=32	=32	=32	=32
I	G	4DD	8D	8f#	24aa
.	G	.	.	.	24dd
.	G	.	.	.	24dd
V	D	.	8D	8b	24ddd
.	r	.	.	.	24dd
.	D	.	.	.	24dd
.	r	4r	24F#	8a	24ccc
.	r	.	24A	.	24dd
.	D	.	24d	.	24dd
.	r	.	24G	8g	24bb
.	r	.	24B	.	24dd
.	G	.	24d	.	24dd
.	G	4DD	8D	8f#	24aa
.	r	.	.	.	24dd
.	r	.	.	.	24dd
IV	C	.	8D	8b	24ddd
.	r	.	.	.	24dd
.	r	.	.	.	24dd
.	C	4r	24F#	8a	24ccc
.	r	.	24A	.	24dd
.	r	.	24d	.	24dd
Ib	G	.	24G	8g	24bb
.	r	.	24B	.	24dd
.	G	.	24d	.	24dd
=33	=33	=33	=33	=33	=33
V7	D	4DD	4D	4f#	4aa
.	E	3..r	3..r	8r	8r
Ic	G	.	.	8B	8d
iib	A	.	.	8c	8e
Ib	G	.	.	8cc	8ee
.	G	.	.	8b	8dd
.	G	24r	24r	.	.
V7	D	8DD	8F#	8a	8cc
=34	=34	=34	=34	=34	=34
vi	E	8EE	8G	4.g	4.b
V	D	8E	8G	.	.
.	D	8D	8F#	.	.
iib	A	8C	8E	8a	8cc
Ib	G	4.BB	4.D	8b	8dd
ii	A	.	.	8bb	8ddd
I	G	.	.	8aa	8ccc
V7b	D	8C	8E	8gg	8bb
=35	=35	=35	=35	=35	=35
.	D	8D	8F#	4.ff#	4.aa
I	G	8d	8f#	.	.
.	G	8c	8e	.	.
vib	E	8B	8d	8gg	8bb
.	E	8A	8c	8aa	8ccc
*Gm:	*Gm:	*	*	*	*
V7d/V	A	8G	8B	8bb	8ddd
.	A	8F#	8A	8ccc	8eee
Vb	D	8f#	8a	16bb	16ddd
.	D	.	.	16aa	16ccc
=36	=36	=36	=36	=36	=36
.	D	2.g	2b	8gg	8bb
V7	D	.	.	8dd	8ggg
.	D	.	.	8ee	8eee
.	D	.	.	8ee	8ccc#
.	D	.	4b-	4ee	4ccc#
.	D	4f#	4a	4dd	4ddd
=37	=37	=37	=37	=37	=37
.	D	[1f#	[1a	[1cc	16d
.	D	.	.	.	16f#
.	D	.	.	.	16a
.	D	.	.	.	16cc
.	D	.	.	.	16dd
.	D	.	.	.	16ff#
.	D	.	.	.	16aa
.	r	.	.	.	16ccc
.	D	.	.	.	8ccc
.	D	.	.	.	8aa
.	D	.	.	.	8ff#
.	D	.	.	.	8ee-
=38	=38	=38	=38	=38	=38
.	D	3..f#_	3..a_	3..cc_	4ee-
.	G	.	.	.	4dd
.	G	.	.	.	2dd
.	G	24f#]	24a]	24cc]	.
.	G	8f#]	8a]	8cc]	.
.	G	8f#	8a	8cc	.
IIIc	B-	8f#	8a	8cc	.
=39	=39	=39	=39	=39	=39
.	B-	8.g	[1g	[1b-	1dd
.	r	16f#	.	.	.
.	E-	16g	.	.	.
.	E-	16f#	.	.	.
.	E-	16g	.	.	.
.	E-	16f#	.	.	.
.	E-	8g	.	.	.
.	E-	8g	.	.	.
.	E-	8f	.	.	.
.	E-	8f	.	.	.
=40	=40	=40	=40	=40	=40
.	E-	8e-	8g]	8b-]	8.ee-
.	E-	8e-	8g	8b-	.
.	E-	.	.	.	16dd
.	E-	8e-	8g	8b-	16ee-
.	E-	.	.	.	16dd
.	E-	8e-	8g	8b-	16ee-
.	E-	.	.	.	16dd
.	E-	8e-	8g	8b-	8ee-
.	E-	8e-	8g	8b-	8gg
.	E-	8e-	8g	8b-	8bb-
.	E-	8e-	8g	8b-	8gg
=41	=41	=41	=41	=41	=41
.	E-	8e-	8g	8b-	8.ee-
V7/ii	E-	8e-	8g	8b-	.
.	E-	.	.	.	16dd
vi7	E-	8e-	8g	8b-	16ee-
.	E-	.	.	.	16dd
.	E-	8e-	8g	8b-	16ee-
.	E-	.	.	.	16dd
.	E-	8e-	8g	8b-	8ee-
V7/ii	E-	8e-	8g	8b-	8bb-
.	E-	8e-	8g	8b-	8gg
.	E-	8e-	8g	8b-	8ee-
=42	=42	=42	=42	=42	=42
.	E-	1e-	8.g	8.b-	8cc#
*G:	*G:	*	*	*	*
Ic	G	.	.	.	4cc#
.	G	.	16f#	16a	.
.	r	.	16g	16b-	.
.	r	.	16f#	16a	.
.	r	.	16g	16b-	4cc#
.	r	.	16f#	16a	.
.	E	.	8g	8b-	.
Ic	G	.	8g	8b-	4cc#
.	r	.	8a	8a	.
.	r	.	8b-	8g	8cc#
=43	=43	=43	=43	=43	=43
V7	D	[3..d	4.b	2.g	4.dd
V	D	.	16cc	.	16ee
.	D	.	16a	.	16cc
V7b	D	.	4g	.	4b
.	r	24d]	.	.	.
I	G	4r	.	.	.
.	G	.	8r	8r	8r
.	G	8D	8F#	8c	8a
=44	=44	=44	=44	=44	=44
IV	C	4G	4G	4B	4g
.	G	2.r	2.r	8r	8r
.	G	.	.	8f#	8cc
IV	C	.	.	4g	4b
.	G	.	.	8r	8r
.	r	.	.	16ee	16gg
.	r	.	.	16cc	16ee
=45	=45	=45	=45	=45	=45
V7	D	2..r	2..r	4.b	4.dd
.	r	.	.	16cc	16ee
.	r	.	.	16a	16cc
.	C	.	.	4g	4b
.	G	.	.	8r	8r
.	G	8DD	8F#	8c	8a
=46	=46	=46	=46	=46	=46
V7b	D	4GG	4G	4B	4g
.	G	2.r	8r	4.r	8r
.	G	.	8F#	.	8cc
.	G	.	8G	.	4b
.	G	.	8c	8ee	.
.	G	.	8B	4dd	8r
*Dm:	*Dm:	*	*	*	*
iv	G	.	8f#	.	8ccc
=47	=47	=47	=47	=47	=47
.	G	4.r	8g	8r	4bb
.	G	.	8cc	8aa	.
.	G	.	8b	4gg	8r
.	G	8D	8f#	.	8cc
.	G	4GG	4g	4.r	4b
iv7b	G	4r	4r	.	4r
.	G	.	.	8d	.
=48	=48	=48	=48	=48	=48
.	G	4.G	8B-	16G	1r
.	G	.	.	16g	.
V7	A	.	8B-	16b-	.
.	A	.	.	16g	.
.	A	.	8B-	16gg	.
.	A	.	.	16g	.
.	A	16B-	8B-	16b-	.
.	A	16d	.	16g	.
.	A	8g	8B-	16G	.
.	A	.	.	16g	.
.	A	8f	8B-	16b-	.
.	A	.	.	16g	.
.	A	8e	8B-	16gg	.
.	A	.	.	16g	.
.	A	8d	8B-	16b-	.
.	A	.	.	16g	.
=49	=49	=49	=49	=49	=49
.	A	4c#	8A	16c#	4.a
.	A	.	.	16g	.
i	D	.	8c#	16a	.
.	D	.	.	16g	.
.	D	2.r	8c#	16aa	.
.	D	.	.	16g	.
.	D	.	8c#	16a	16cc#
.	D	.	.	16g	16ee
.	D	.	8c#	16c#	8aa
.	D	.	.	16g	.
.	D	.	8c#	16a	8ccc#
.	D	.	.	16g	.
.	D	.	8c#	16aa	8eee
.	D	.	.	16g	.
.	D	.	8c#	16a	8ggg
.	D	.	.	16g	.
=50	=50	=50	=50	=50	=50
.	D	4.DD	8d	16d	4fff
.	D	.	.	16f	.
V7d/IV	D	.	8d	16a	.
.	D	.	.	16f	.
.	D	.	8d	16ff	2.r
.	D	.	.	16f	.
.	D	16FF	8d	16a	.
.	D	16AA	.	16f	.
.	D	8D	8d	16d	.
.	D	.	.	16f	.
.	D	8F	8d	16a	.
.	D	.	.	16f	.
.	D	8A	8d	16ff	.
.	D	.	.	16f	.
*Em:	*Em:	*	*	*	*
V7d/iii	D	8d	8d	16a	.
.	D	.	.	16f	.
=51	=51	=51	=51	=51	=51
.	D	4f#	8c	16c	4.dd
.	D	.	.	16f#	.
V	B	.	8c	16a	.
.	B	.	.	16f#	.
V7	B	2.r	8c	16ff#	.
.	B	.	.	16f#	.
.	B	.	8c	16a	16ff#
.	B	.	.	16f#	16aa
.	B	.	8c	16c	8ddd
.	B	.	.	16f#	.
.	B	.	8c	16a	8aa
.	B	.	.	16f#	.
.	B	.	8c	16ff#	8fff#
.	B	.	.	16f#	.
.	B	.	8c	16a	8eee
.	B	.	.	16f#	.
=52	=52	=52	=52	=52	=52
.	B	4.BB	8B	16B	4ddd#
.	B	.	.	16f#	.
ic	E	.	8B	16a	.
.	E	.	.	16f#	.
.	E	.	8B	16ff#	2.r
.	E	.	.	16f#	.
.	E	16D#	8B	16a	.
.	E	16F#	.	16f#	.
.	E	8B	8B	16B	.
.	E	.	.	16f#	.
.	E	8d#	8B	16a	.
.	E	.	.	16f#	.
.	E	8f#	8B	16ff#	.
.	E	.	.	16f#	.
.	E	8a	8B	16a	.
.	E	.	.	16f#	.
=53	=53	=53	=53	=53	=53
i7c	E	4g	8B	16B	4.ee
.	E	.	.	16e	.
VI	C	.	8B	16g	.
.	C	.	.	16e	.
.	C	2.r	8B	16ee	.
.	C	.	.	16e	.
.	C	.	8B	16g	16gg
.	C	.	.	16e	16bb
.	C	.	8B	16B	8eee
.	C	.	.	16e	.
.	C	.	8B	16g	8bb
.	C	.	.	16e	.
.	C	.	8B	16ee	8ggg
.	C	.	.	16g	.
.	C	.	8B	16dd	8fff
.	C	.	.	16g	.
=54	=54	=54	=54	=54	=54
.	C	4.CC	8c	16c	4eee
.	C	.	.	16e	.
V7d/ii	C	.	8c	16g	.
.	C	.	.	16e	.
.	C	.	8c	16ee	2.r
.	C	.	.	16e	.
.	C	16EE	8c	16g	.
.	C	16GG	.	16e	.
.	C	8C	8c	16c	.
.	C	.	.	16e	.
.	C	8E	8c	16g	.
.	C	.	.	16e	.
.	C	8G	8c	16ee	.
.	C	.	.	16e	.
*Dm:	*Dm:	*	*	*	*
iio	E	8c	8c	16g	.
.	E	.	.	16e	.
=55	=55	=55	=55	=55	=55
iio7	E	4e	8B-	16B-	4.cc
.	E	.	.	16e	.
V	A	.	8B-	16g	.
.	A	.	.	16e	.
V7	A	2.r	8B-	16ee	.
.	A	.	.	16e	.
.	A	.	8B-	16g	16ee
.	A	.	.	16e	16gg
.	A	.	8B-	16B-	8ccc
.	A	.	.	16e	.
.	A	.	8B-	16g	8gg
.	A	.	.	16e	.
.	A	.	8B-	16ee	8eee
.	A	.	.	16e	.
.	A	.	8B-	16g	8ddd
.	A	.	.	16e	.
=56	=56	=56	=56	=56	=56
.	A	4.AA	8A	16A	4ccc#
.	A	.	.	16e	.
ic	D	.	8A	16g	.
.	D	.	.	16e	.
.	D	.	8A	16ee	2.r
.	D	.	.	16e	.
.	D	16C#	8A	16g	.
.	D	16E	.	16e	.
.	D	8A	8A	16A	.
.	D	.	.	16e	.
.	D	8c#	8A	16g	.
.	D	.	.	16e	.
.	D	8e	8A	16ee	.
.	D	.	.	16e	.
.	D	8g	8A	16g	.
.	D	.	.	16e	.
=57	=57	=57	=57	=57	=57
i7c	D	4f	8A	16A	4.dd
.	D	.	.	16d	.
VI	B-	.	8A	16f	.
.	B-	.	.	16d	.
.	B-	2.r	8A	16dd	.
.	B-	.	.	16d	.
ivb	G	.	8A	16f	16ff
.	G	.	.	16d	16aa
iv7c	G	.	8A	16A	8ddd
.	G	.	.	16d	.
.	G	.	8A	16f	8aa
.	G	.	.	16d	.
.	G	.	8A	16dd	8fff
.	G	.	.	16f	.
.	G	.	8A	16cc	8eee-
.	G	.	.	16f	.
=58	=58	=58	=58	=58	=58
.	G	4.BB-	8B-	16B-	4ddd
.	G	.	.	16d	.
.	G	.	8B-	16f	.
.	G	.	.	16d	.
.	G	.	8B-	16dd	2.r
.	G	.	.	16d	.
V7/VII	G	16D	8B-	16f	.
.	G	16F	.	16d	.
.	G	8B-	8B-	16B-	.
.	G	.	.	16d	.
.	G	8d	8B-	16f	.
.	G	.	.	16d	.
.	G	8f	8B-	16dd	.
.	G	.	.	16d	.
.	G	8A	8B-	16f	.
.	G	.	.	16d	.
=59	=59	=59	=59	=59	=59
.	G	4G#	8G#	16G#	4.dd
.	G	.	.	16d	.
V	A	.	8G#	16f	.
.	A	.	.	16d	.
.	A	2.r	8G#	16b	.
.	A	.	.	16d	.
.	A	.	8G#	16f	16ff
.	A	.	.	16d	16dd
.	A	.	8G#	16G#	8bb
.	A	.	.	16d	.
ic	D	.	8G#	16f	8ddd
.	D	.	.	16d	.
.	r	.	8G#	16b	8fff
.	r	.	.	16d	.
.	r	.	8G#	16f	8G#
.	r	.	.	16d	.
=60	=60	=60	=60	=60	=60
.	D	4.AA	8A	16A	4.A
.	D	.	.	16c#	.
.	D	.	8A	16e	.
.	r	.	.	16c#	.
.	D	.	8A	16cc#	.
.	D	.	.	16c#	.
.	D	16C#	8A	16e	16c#
.	D	16E	.	16c#	16e
.	D	4A	4A	4A	4a
.	E	4r	8r	4r	4r
V	A	.	8a	.	.
=61	=61	=61	=61	=61	=61
V7	A	1r	2dd	8r	4r
i	D	.	.	8d	.
.	D	.	.	8f	2dd
.	D	.	.	8d	.
.	D	.	4.ee	8g	.
ivb	G	.	.	8e	.
.	G	.	.	8a	4cc#
VII	C	.	16ff	8a	.
.	r	.	16gg	.	.
=62	=62	=62	=62	=62	=62
vb	A	1r	2.ff	2ff	8dd
ib	D	.	.	.	8d
.	D	.	.	.	8f
*Am:	*Am:	*	*	*	*
ivc	D	.	.	.	8A
iv7d	D	.	.	4.gg	8B-
iiob	B	.	.	.	8G
iio	B	.	4ee	.	8c
V	E	.	.	16aa	8cc
.	E	.	.	16bb-	.
=63	=63	=63	=63	=63	=63
V7	E	8r	2.ff	2.aa	2aa
i	A	8F	.	.	.
.	A	8A	.	.	.
.	A	8C	.	.	.
.	A	8D	.	.	4.bb
.	A	8BB	.	.	.
.	A	8E	4ee	4gg#	.
.	A	8E	.	.	16ccc
.	A	.	.	.	16ddd
=64	=64	=64	=64	=64	=64
.	A	4AA	4ee	8aa	8ccc
V7d/IV	A	.	.	8ccc	8eee
.	A	4.r	4.r	8ccc	8eee
.	A	.	.	8ccc	8eee
.	A	.	.	8.ccc	8.eee
*B:	*B:	*	*	*	*
V7	F#	8A	8a	.	.
.	F#	.	.	16aa	16ccc
.	F#	8A	8a	16ccc	16eee
.	F#	.	.	16aa	16ccc
.	F#	8A	8a	16ccc	16eee
.	F#	.	.	16aa	16ccc
=65	=65	=65	=65	=65	=65
iv	E	8G	8a	8.ccc#	8.eee
V7	F#	8G	8A	.	.
.	F#	.	.	16aa	16ccc#
.	F#	8G	8A	16ccc#	16eee
.	F#	.	.	16aa	16ccc#
.	F#	8G	8A	16ccc#	16eee
.	F#	.	.	16aa	16ccc#
.	F#	8F#	8A#	8ccc#	8eee
.	F#	8A#	8c#	8aa#	8ccc#
.	F#	8c#	8e	8gg	8aa#
.	F#	8e	8g	8ee	8gg
=66	=66	=66	=66	=66	=66
.	F#	1f#	[1a#	[1cc#	8.ee
.	F#	.	.	.	16dd#
.	F#	.	.	.	16ee
.	F#	.	.	.	16dd#
.	F#	.	.	.	16ee
.	F#	.	.	.	16dd#
.	F#	.	.	.	8ee
.	F#	.	.	.	8ee
.	F#	.	.	.	8ee
.	F#	.	.	.	8ee
=67	=67	=67	=67	=67	=67
.	F#	8.f#	1a#]	1cc#]	1ee
.	r	16e#	.	.	.
.	r	16f#	.	.	.
.	B	16e#	.	.	.
.	B	16f#	.	.	.
.	B	16e#	.	.	.
.	B	8f#	.	.	.
*Am:	*Am:	*	*	*	*
V7c/V	B	8f#	.	.	.
.	B	8f#	.	.	.
.	B	8f#	.	.	.
=68	=68	=68	=68	=68	=68
.	B	1f#	8.a	8.cc	1dd#
.	A	.	16g#	16b	.
.	A	.	16a	16cc	.
.	E	.	16g#	16b	.
V	E	.	16a	16cc	.
.	E	.	16g#	16b	.
.	E	.	8a	8cc	.
ic	A	.	8a	8cc	.
.	A	.	8a	8cc	.
.	A	.	8a	8cc	.
=69	=69	=69	=69	=69	=69
.	A	1e	8.a	8.cc	1ee
.	B	.	16g#	16b	.
.	B	.	16a	16cc	.
.	B	.	16g#	16b	.
.	B	.	16a	16cc	.
.	B	.	16g#	16b	.
.	B	.	8a	8cc	.
.	B	.	8a	8cc	.
.	B	.	8a	8cc	.
ii7b	B	.	8a	8cc	.
=70	=70	=70	=70	=70	=70
V7b/V	B	1d#	8.a	8.cc	1ff#
.	E	.	16g#	16b	.
.	E	.	16a	16cc	.
.	E	.	16g#	16b	.
V7	E	.	16a	16cc	.
.	E	.	16g#	16b	.
ic	A	.	8a	8cc	.
V	E	.	8a	8cc	.
.	r	.	8b	8dd	.
.	r	.	8a	8cc	.
=71	=71	=71	=71	=71	=71
.	A	2.e	8g#	8b	2ee
iv	D	.	8cc	8ee	.
.	D	.	8b	8dd	.
ib	A	.	8a	8cc	.
V7	E	.	4g#	4b	4e
.	D	4r	4r	8r	8r
i7c	A	.	.	8c	8e
=72	=72	=72	=72	=72	=72
iv	D	4.r	4.r	8d	8f
ib	A	.	.	8dd	8ff
.	A	.	.	8cc	8ee
ii	B	8E	8G#	8b	8dd
ib	A	8F	8A	4.a	4.cc
V7d	E	8f	8a	.	.
iv	D	8e	8g	.	.
ib	A	8d	8f	8b	8dd
=73	=73	=73	=73	=73	=73
V7c/iii	G	8c	8e	8cc	8ee
ib	A	8A	8c	8ee	8ccc
.	A	8B	8d	8dd	8bb
.	A	8c	8e	8cc	8aa
.	A	8d	8f	8b	8gg#
Chr	B-	8B	8d	8ff	8ddd
.	r	8c	8e	8ee	8ccc
.	r	8d	8f	8dd	8bb
=74	=74	=74	=74	=74	=74
.	E	2c	4e	8ee	4.eee
iv7b	D	.	.	8a	.
.	r	.	4cc	8a	.
.	r	.	.	8a	16ccc
.	r	.	.	.	16aa
.	D	4d	4b-	4f	4bb-
.	A	8r	8r	8r	8r
.	A	8e	8b	8dd	8gg#
=75	=75	=75	=75	=75	=75
iv	D	4f	4a	4cc	4aa
.	A	2.r	2.r	8r	8r
V	E	.	.	16ff	16aa
.	E	.	.	16dd	16ff
V7	E	.	.	4.cc	4.ee
iv	D	.	.	16dd	16ff
.	r	.	.	16b	16dd
=76	=76	=76	=76	=76	=76
.	D	4.r	4.r	4a	4cc
.	A	.	.	8r	8r
.	r	8E	8G#	8d	8b
V7b	E	4AA	4A	4c	4a
.	A	4r	4r	8r	8r
.	A	.	.	8dd	8ff
=77	=77	=77	=77	=77	=77
.	A	1r	1r	4cc	4ee
.	A	.	.	8r	8r
*Dm:	*Dm:	*	*	*	*
V7c	A	.	.	8g#	8dd
.	A	.	.	8.a	8.cc
.	r	.	.	16g#	16b
.	r	.	.	16a	16cc
.	D	.	.	16g#	16b
.	D	.	.	16a	16cc
.	D	.	.	16g#	16b
=78	=78	=78	=78	=78	=78
.	D	4r	4r	4a	4cc
V7b	A	4e	4g	4b-	4cc#
V7d/V	D	8.f	8.a	8.a	8.dd
.	G	16g	16g	16b-	16cc#
V7	G	16f	16a	16a	16dd
.	G	16g	16g	16b-	16cc#
vi	A	16f	16a	16a	16dd
.	A	16g	16g	16b-	16cc#
=79	=79	=79	=79	=79	=79
IV	F	8f	8a	4a	8dd
Ic	C	8c#	8g	.	8ee
.	C	8d	8f	8r	8ff
.	C	8c	8a	8ee-	8ff#
.	C	8B	8g	8dd	8gg
V	G	8G	8dd	8b	8ff
.	G	8A	8cc	8cc	8ee
.	r	8F	8cc	8a	8aa
=80	=80	=80	=80	=80	=80
.	G	2G	2g	2e	4.cc
.	C	.	.	.	16dd
.	C	.	.	.	16cc
IVb	F	4GG	4G	4d	4b
.	D	8r	4r	4r	4r
V	G	8G	.	.	.
=81	=81	=81	=81	=81	=81
V7	G	2c	8r	4r	1r
I	C	.	8C	.	.
.	C	.	8E	2c	.
.	C	.	8A	.	.
.	C	4.d	8F	.	.
.	C	.	8D	.	.
.	C	.	8G	4B	.
.	C	16e	8G	.	.
.	C	16f	.	.	.
=82	=82	=82	=82	=82	=82
.	C	8e	8C	8c	3..r
.	C	8g	8C	8e	.
.	C	8g	8E	8e	.
.	C	8g	8G	8e	.
.	C	8.g	8c	8.e	.
.	r	.	.	.	24r
V7b/IV	C	.	8C	.	8gg
.	C	16e	.	16c	.
.	C	16g	4r	16e	8gg
.	C	16e	.	16c	.
.	C	16g	.	16e	8gg
.	C	16e	.	16c	.
=83	=83	=83	=83	=83	=83
.	C	[2g	8c	[2e	8.gg
.	C	.	8C	.	.
.	C	.	.	.	16ee
.	C	.	4.r	.	16gg
.	C	.	.	.	16ee
.	C	.	.	.	16gg
.	C	.	.	.	16ee
.	C	8.g]	.	8.e]	[2bb-
IV	F	.	8c 8C	.	.
.	F	16e	.	16c	.
.	F	16g	8c 8C	16e	.
.	r	16e	.	16c	.
iib	D	16g	8c 8C	16e	.
.	D	16e	.	16c	.
=84	=84	=84	=84	=84	=84
IIb	D	4g	[3..c	4e	16bb-]
.	D	.	.	.	16gg
V	G	.	.	.	16ee
.	G	.	.	.	16cc
.	r	4E	.	4g	16b-
.	r	.	.	.	16g
.	G	.	.	.	16e
.	G	.	.	.	16B-
.	G	4.F	.	4c	8A
.	G	.	24c 24C]	.	.
.	G	.	8f	.	8aa
.	G	.	8d	4a	8ff
V7	G	8F#	8d	.	8dd
=85	=85	=85	=85	=85	=85
.	G	4.G	4.d	4.d	4cc
.	G	.	.	.	24b
.	G	.	.	.	24g
.	G	.	.	.	24a
.	G	3..r	3..r	8r	24b
.	G	.	.	.	24a
.	G	.	.	.	24g
.	G	.	.	24dd	24dd
.	G	.	.	24b	24g
.	G	.	.	24cc	24a
I	C	.	.	24dd	24b
.	r	.	.	24cc	24a
.	r	.	.	24b	24g
.	C	.	.	24dd	24ff
.	r	.	.	24b	24g
.	C	.	.	24cc	24a
vib	A	.	.	24dd	24b
.	r	.	.	24cc	24a
.	r	24r	24r	24b	24g
=86	=86	=86	=86	=86	=86
.	A	24r	24r	4.ff	4.ddd
.	r	24G	24B	.	.
.	r	24A	24c	.	.
V7d/V	D	24B	24d	.	.
.	r	24A	24c	.	.
.	r	24G	24B	.	.
.	D	24B	24d	.	.
.	r	24A	24c	.	.
.	D	24G	24B	.	.
Vb	G	24B	24d	8dd	8ff
.	r	24A	24c	.	.
.	G	24G	24B	.	.
.	r	[2c	2e	8cc	8ee
.	G	.	.	8g	8ccc
V7	G	.	.	8a	8aa
iic	D	.	.	8a	8ff#
=87	=87	=87	=87	=87	=87
vi	A	4c]	4e-	4a	4ff#
.	F	4B	4d	4g	4gg
.	G	4GG	8r	8r	8r
I	C	.	4B	4d	4f
.	r	4AA	.	.	.
.	r	.	8c	8c	8e
=88	=88	=88	=88	=88	=88
.	C	4FF	8r	8r	8r
iib	D	.	8c	8f	8a
ii7b	D	8r	8r	8r	8r
Vb	G	8GG	8F	8d	8B
V7b	G	4C	4E	4c	4c
.	G	24r	4r	4r	24r
.	G	24c	.	.	24ee
.	G	24d	.	.	24ff
vi	A	24e	.	.	24gg
.	A	24d	.	.	24ff
.	A	24c	.	.	24ee
=89	=89	=89	=89	=89	=89
.	A	4f	24r	24r	4aa
.	A	.	24f	24a	.
.	A	.	24g	24b	.
ii	D	.	24a	24cc	.
.	D	.	24g	24b	.
.	D	.	24f	24a	.
.	D	24r	4b	4dd	24r
.	D	24B	.	.	24dd
.	D	24c	.	.	24ee
Vb	G	24d	.	.	24ff
.	G	24c	.	.	24ee
.	G	24B	.	.	24dd
V7b	G	4e	24r	24r	4gg
.	G	.	24e	24g	.
.	G	.	24f	24a	.
I	C	.	24g	24b	.
.	C	.	24f	24a	.
.	C	.	24e	24g	.
.	C	24r	4a	4cc	24r
.	C	24A	.	.	24cc
.	C	24B	.	.	24dd
V7	G	24c	.	.	24ee
.	G	24B	.	.	24dd
.	G	24A	.	.	24cc
=90	=90	=90	=90	=90	=90
Ic	C	4d	24r	24r	4ff
.	C	.	24d	24f	.
.	C	.	24e	24g	.
V	G	.	24f	24a	.
.	G	.	24e	24g	.
.	G	.	24d	24f	.
.	G	24r	4g	4b	24r
.	G	24B	.	.	24dd
.	G	24c	.	.	24ee
V7	G	24d	.	.	24ff
.	G	24c	.	.	24ee
.	G	24B	.	.	24dd
Ic	C	4c	8r	8r	24ee
.	C	.	.	.	24g
.	C	.	.	.	24g
V	G	.	8G	8ee	24gg
.	G	.	.	.	24g
.	G	.	.	.	24g
.	G	4r	24G	8dd	24ff
.	G	.	24B	.	24g
.	G	.	24d	.	24g
V7	G	.	24G	8cc	24ee
.	G	.	24c	.	24g
.	G	.	24e	.	24g
=91	=91	=91	=91	=91	=91
Ic	C	4GG	8G	8b	24dd
.	C	.	.	.	24g
.	C	.	.	.	24g
V	G	.	8G	8ee	24gg
.	r	.	.	.	24g
.	G	.	.	.	24g
.	r	4r	24G	8dd	24ff
.	r	.	24B	.	24g
.	G	.	24d	.	24g
.	r	.	24G	8cc	24ee
.	r	.	24c	.	24g
.	r	.	24e	.	24g
.	C	4GG	8G	8b	24dd
.	r	.	.	.	24g
.	C	.	.	.	24g
IV	F	.	8G	8e	24gg
.	r	.	.	.	24g
.	r	.	.	.	24g
.	F	4r	24G	8d	24ff
.	r	.	24B	.	24g
.	r	.	24d	.	24g
Ib	C	.	24G	8c	24ee
.	r	.	24c	.	24g
.	C	.	24e	.	24g
=92	=92	=92	=92	=92	=92
V7	G	4GG	4G	4B	4dd
.	A	3..r	8r	3..r	8r
iiib	E	.	8E	.	8G
iib	D	.	8F	.	8A
Ib	C	.	8f	.	8a
.	C	.	8e	.	8g
.	C	24r	.	24r	.
V7	G	8GG	8d	8B	8f
=93	=93	=93	=93	=93	=93
IV	F	8AA	4.c	8c	4.e
V	G	8A	.	8c	.
.	G	8G	.	8B	.
iib	D	8F	8d	8A	8f
Ib	C	4.E	8e	4.G	8g
ii	D	.	8ee	.	8gg
I	C	.	8dd	.	8ff
V7b	G	8F	8cc	8A	8ee
=94	=94	=94	=94	=94	=94
.	G	8G	8b	8B	4.dd
I	C	8g	8b	4b	.
.	C	8f	8a	.	.
vib	A	8e	8g	8cc	8ee
V7d/V	D	8d	8f	8dd	8ff
*Cm:	*Cm:	*	*	*	*
V7d/V	D	8c	8e	8ee	8gg
.	D	4B	8d	8ff	8aa
Vb	G	.	8d	16ee	16gg
.	G	.	.	16dd	16ff
=95	=95	=95	=95	=95	=95
.	G	2.c	2e	8cc	8ee
V7b	G	.	.	8g	8ccc
.	r	.	.	8a	8aa
.	r	.	.	8a	8ff#
.	G	.	4e-	4a	4ff#
.	G	4B	4d	4g	4gg
=96	=96	=96	=96	=96	=96
.	G	[1B	4.d	[3..a-	4.ff
.	G	.	8e-	.	8ee-
.	r	.	8f	.	8dd
.	r	.	.	24a-]	.
.	G	.	8e-	8g	8cc
.	G	.	8d	8f	8b
.	G	.	8d	8f	16cc
.	r	.	.	.	16dd
=97	=97	=97	=97	=97	=97
.	G	3..B_	[3..d	[3..f	4a-
.	C	.	.	.	4g
.	C	.	.	.	2g
.	r	24B]	24d]	24f]	.
.	C	8B]	8d	8f	.
.	C	8B	8d	8f	.
IIIc	E-	8B	8d	8f	.
=98	=98	=98	=98	=98	=98
.	E-	8.c	[1c	[1e-	1g
.	A-	16B	.	.	.
.	A-	16c	.	.	.
.	A-	16B	.	.	.
.	A-	16c	.	.	.
.	A-	16B	.	.	.
.	A-	8c	.	.	.
.	A-	8c	.	.	.
.	A-	8B-	.	.	.
.	A-	8B-	.	.	.
=99	=99	=99	=99	=99	=99
.	A-	8A-	8c]	8e-]	8.a-
.	A-	8A-	8c	8e-	.
.	A-	.	.	.	16g
.	A-	8A-	8c	8e-	16a-
.	A-	.	.	.	16g
.	A-	8A-	8c	8e-	16a-
.	A-	.	.	.	16g
.	A-	8A-	8c	8e-	8a-
.	A-	8A-	8c	8e-	8cc
.	A-	8A-	8c	8e-	8ee-
.	A-	8A-	8c	8e-	8cc
=100	=100	=100	=100	=100	=100
.	A-	8A-	8c	8e-	8.a-
V7/ii	A-	8A-	8c	8e-	.
.	A-	.	.	.	16g
vi7	A-	8A-	8c	8e-	16a-
.	A-	.	.	.	16g
.	A-	8A-	8c	8e-	16a-
.	A-	.	.	.	16g
.	A-	8A-	8c	8e-	8a-
V7/ii	A-	8A-	8c	8e-	8ee-
.	A-	8A-	8c	8e-	8cc
.	A-	8A-	8c	8e-	8a-
=101	=101	=101	=101	=101	=101
.	A-	1A-	8.c	8.e-	8f#
*C:	*C:	*	*	*	*
Ic	C	.	.	.	4f#
.	C	.	16B	16d	.
.	C	.	16c	16e-	.
.	r	.	16B	16d	.
.	r	.	16c	16e-	4f#
.	r	.	16B	16d	.
vi7d	A	.	8c	8e-	.
Ic	C	.	8c	8e-	4f#
.	r	.	8d	8d	.
.	r	.	8e-	8c	8f#
=102	=102	=102	=102	=102	=102
.	G	[2G	4.e	2.c	4.g
.	r	.	16f	.	16a
.	r	.	16d	.	16f
V7b	G	4G]	4c	.	4e
.	C	8r	8r	8r	8r
IV	F	8GG	8F	8B	8d
=103	=103	=103	=103	=103	=103
.	F	4C	4E	4c	4c
.	C	2.r	2.r	8r	8r
.	C	.	.	8B	8f
ii	D	.	.	4c	4e
.	C	.	.	8r	8r
V	G	.	.	16a	16cc
.	r	.	.	16f	16a
=104	=104	=104	=104	=104	=104
V7	G	2..r	2..r	4.e	4.g
.	r	.	.	16f	16a
.	r	.	.	16d	16f
V7b	G	.	.	4c	4e
IV	F	.	.	8r	8r
Ib	C	8GG	8F	8B	8d
=105	=105	=105	=105	=105	=105
V7b	G	4C	4E	4c	4c
iib	D	2.r	2.r	8r	8r
Ib	C	.	.	8B	8f
V7	G	.	.	8c	8e
I	C	.	.	8f	8a
.	C	.	.	8e	8g
.	r	.	.	8b	8ff
=106	=106	=106	=106	=106	=106
.	r	4.r	4.r	8cc	8ee
.	r	.	.	8f	8dd
.	r	.	.	8e	8cc
.	r	8GG	8D	8B	8f
.	r	4CC	4C	4c	4e
.	r	4r	4r	4r	4r
==	==	==	==	==	==
*-	*-	*-	*-	*-	*-
!!!RWG1: This file contains only pitch and duration data.
!!!RWG2: Transposing instruments are not transposed.
!!!RWG3: Spines may have incompatible meters.
!!!RWG4: Durations of rests and tied notes may be interpreted.
!!!RWG: Key is interpreted using the Humdrum key tool.
!!!GTL: 6 Divertimentos ("Sun")
!!!AFT: stage1
!!!END: 1997/04/15
!!!KEY: 2510530854
!!!EMD: Converted from MuseData to Humdrum Dec 16, 2000, by Andreas Kornstaedt using muse2kern.
!!!EMD: Manual editing by Craig Sapp, Nov 2001
